FINK
CUT[AUF IHR BRUEDER DEUTSCHLANDS SOEHNE]
REG[Europa, Mitteleuropa, Deutschland]
KEY[F0481  08  C 4/4]
MEL[-5-5  1_1_2_2_  3_1_0_
    1-7  -6_.-62_.-4  -5__0_
    -5-5  1_1_2_2_  3_1_0_
    1-7  -6_.-62_.-4  -5__0_
    -5-6  -7_-7_1_1_  2-7-7_0_
    21  2_2_3_3_  4__0_
    -5-5  1_1_2_2_  3_1_0_
    1-7  -6_2_1_-7_  1__0_ //] >>
FCT[Studenten -,  Burschenschafts - Lied, Einweihung]
